X: 1
T: Reel Of Escoreda, The
M: 4/4
L: 1/8
R: reel
K: Gmaj
|:DG~G2 A2 (3Bcd|eged BAGA|BDEG A2 (3Bcd|~e2 BA GedB|
DG~G2 A2 (3Bcd|eged BAGA|BE~E2 BEGA|(3Bcd AB ~G3 E:|
|:dg~g2 bgag|dedc BG (3Bcd|eA~A2 eABd|edef gedB|
dg~g2 a2 ba|gedB A2 GA|BE~E2 BEGA|(3Bcd AB ~G3 e:|
